tools/download-figma-icons/icons/outlined-large/child.svg

<svg width="64" height="64" viewBox="0 0 64 64" fill="none" xmlns="http://www.w3.org/2000/svg">
<path fill-rule="evenodd" clip-rule="evenodd" d="M5.99995 35.0001C5.99995 49.337 17.6629 60.9999 31.9998 60.9999C46.3366 60.9999 57.9996 49.337 57.9996 35.0001C57.9996 32.5821 57.6606 30.2432 57.0406 28.0202C52.0376 28.1192 47.8816 26.6962 44.7277 23.7502C41.9647 21.1712 40.4277 17.8713 39.5717 15.0013C33.7437 28.7522 20.0918 31.0122 11.7539 31.0122C9.46493 31.0122 7.57894 30.8422 6.36295 30.6922C6.12895 32.0942 5.99995 33.5321 5.99995 35.0001ZM37.4637 9.58332C35.7007 9.20433 33.8737 9.00033 31.9998 9.00033C20.1768 9.00033 10.1789 16.9363 7.03395 27.7582C9.55993 28.0612 14.8019 28.4182 20.3118 27.1452C27.9998 25.3682 33.3917 21.1722 36.4307 14.6553C33.1627 16.9233 29.5658 17.5003 26.7888 17.5003C24.0608 17.5003 22.1258 16.9543 22.0768 16.9393C21.2818 16.7063 20.8268 15.8723 21.0608 15.0773C21.2938 14.2833 22.1268 13.8313 22.9198 14.0603C23.3128 14.1743 31.9858 16.5653 37.4637 9.58332ZM46.7886 21.5702C49.1486 23.7692 52.2406 24.9222 56.0086 25.0282C53.3376 18.6233 48.1756 13.5113 41.7397 10.9003C42.1697 13.7173 43.3767 18.3943 46.7886 21.5702ZM45.1787 4.83836C43.5147 5.68235 42.5347 6.88834 41.9967 7.77734C53.0766 11.8593 60.9995 22.5212 60.9995 35.0001C60.9995 50.99 47.9896 63.9999 31.9998 63.9999C16.0099 63.9999 2.99998 50.99 2.99998 35.0001C2.99998 19.0093 16.0099 6.00035 31.9998 6.00035C34.0377 6.00035 36.0267 6.21435 37.9477 6.61635C37.3817 5.34636 36.2447 3.78037 33.9607 2.90037C33.1867 2.60238 32.8027 1.73438 33.1007 0.961389C33.3977 0.187395 34.2697 -0.196602 35.0387 0.100396C37.9487 1.22139 39.5437 3.14037 40.4247 4.85336C41.2217 3.90637 42.3217 2.92237 43.8207 2.16238C44.5597 1.78838 45.4617 2.08338 45.8377 2.82238C46.2126 3.56137 45.9166 4.46336 45.1787 4.83836ZM23.9998 33.0001C25.6568 33.0001 26.9998 34.3431 26.9998 36.0001C26.9998 37.6571 25.6568 39.0001 23.9998 39.0001C22.3428 39.0001 20.9998 37.6571 20.9998 36.0001C20.9998 34.3431 22.3428 33.0001 23.9998 33.0001ZM39.9997 33.0001C38.3427 33.0001 36.9997 34.3431 36.9997 36.0001C36.9997 37.6571 38.3427 39.0001 39.9997 39.0001C41.6567 39.0001 42.9997 37.6571 42.9997 36.0001C42.9997 34.3431 41.6567 33.0001 39.9997 33.0001ZM25.5009 46.3828C25.7779 46.6308 32.1189 52.1238 38.4958 46.3848C39.1118 45.8318 40.0588 45.8798 40.6148 46.4958C41.1688 47.1128 41.1188 48.0608 40.5038 48.6148C37.7368 51.1048 34.8658 51.9938 32.2399 51.9938C28.4829 51.9938 25.2269 50.1728 23.4959 48.6148C22.8809 48.0608 22.8309 47.1128 23.3849 46.4958C23.9389 45.8818 24.8849 45.8308 25.5009 46.3828Z" fill="black"/>
</svg>

<svg xmlns="http://www.w3.org/2000/svg" width="64" height="64" fill="none" viewBox="0 0 64 64"><path fill="currentColor" fill-rule="evenodd" d="M6 35c0 14.337 11.663 26 26 26s26-11.663 26-26c0-2.418-.34-4.757-.96-6.98-5.002.1-9.158-1.324-12.312-4.27-2.763-2.579-4.3-5.879-5.156-8.749-5.828 13.751-19.48 16.011-27.818 16.011-2.29 0-4.175-.17-5.391-.32A26 26 0 0 0 6 35M37.464 9.583A26 26 0 0 0 32 9C20.177 9 10.179 16.936 7.034 27.758c2.526.303 7.768.66 13.278-.613 7.688-1.777 13.08-5.973 16.119-12.49-3.268 2.268-6.865 2.845-9.642 2.845-2.728 0-4.663-.546-4.712-.56a1.499 1.499 0 0 1 .843-2.88c.393.114 9.066 2.505 14.544-4.477m9.325 11.987c2.36 2.2 5.452 3.352 9.22 3.458A26.15 26.15 0 0 0 41.739 10.9c.43 2.817 1.638 7.494 5.05 10.67m-1.61-16.732a7.85 7.85 0 0 0-3.182 2.94C53.077 11.858 60.999 22.52 60.999 35c0 15.99-13.01 29-29 29S3 50.99 3 35 16.01 6 32 6c2.038 0 4.027.214 5.948.616-.566-1.27-1.703-2.836-3.987-3.716A1.499 1.499 0 1 1 35.039.1c2.91 1.121 4.505 3.04 5.386 4.753a10.8 10.8 0 0 1 3.396-2.69 1.5 1.5 0 0 1 1.358 2.676M23.999 33A3 3 0 1 1 24 39a3 3 0 0 1 0-6m16 0a3 3 0 1 0 0 6 3 3 0 0 0 0-6M25.502 46.383c.277.248 6.618 5.74 12.995.002a1.502 1.502 0 0 1 2.008 2.23c-2.767 2.49-5.638 3.379-8.264 3.379-3.757 0-7.013-1.821-8.744-3.38a1.5 1.5 0 0 1 2.005-2.232" clip-rule="evenodd"/></svg>
